dist/svg/static/rotate-image-right-small.svg

<svg xmlns="http://www.w3.org/2000/svg" width="24" height="24" viewBox="0 0 24 24"><g fill="none" stroke="currentColor"><path d="M11.1 1.3l3.4 3.2-3.4 3.3"/><path d="M2.5 14c.3-2.4 1.5-5 3.4-6.9C8 5 10.6 4.5 13.4 4.5h1.1M20.5 12.5h-12v7c0 1.1.9 2 2 2h12v-7c0-1.1-.9-2-2-2z"/></g></svg>

<?xml version="1.0" encoding="UTF-8" standalone="no"?>
<svg width="24px" height="24px" viewBox="0 0 24 24" version="1.1" xmlns="http://www.w3.org/2000/svg" xmlns:xlink="http://www.w3.org/1999/xlink">
    <!-- Generator: sketchtool 46.2 (44496) - http://www.bohemiancoding.com/sketch -->
    <title>rotate-image-right-small</title>
    <desc>Created with sketchtool.</desc>
    <defs></defs>
    <g id="icons-published" stroke="none" stroke-width="1" fill="none" fill-rule="evenodd">
        <g id="briefing" transform="translate(-3524.000000, -1434.000000)"></g>
        <g id="rotate-image-right-small" stroke="#000000">
            <polyline id="Shape" points="11.1 1.3 14.5 4.5 11.1 7.8"></polyline>
            <path d="M20.5,12.5 L8.5,12.5 L8.5,19.5 C8.5,20.6 9.4,21.5 10.5,21.5 L22.5,21.5 L22.5,14.5 C22.5,13.4 21.6,12.5 20.5,12.5 Z" id="Shape"></path>
            <path d="M2.5,14 C2.8,11.6 4,9 5.9,7.1 C8,5 10.6,4.5 13.4,4.5 L14.5,4.5" id="Path"></path>
        </g>
    </g>
</svg>
